X: 31555
T: Pádraig O'Keeffe's
R: polka
M: 2/4
K: Gmajor
|:dB ce|d2 de|dB GB|A2 AB/A/|
GA Bd|eg b2|ag ef|1 g2 g2:|2 g2 f2||
|:e2 ed|ef g/b/g/e/|dB GB|AF AB/A/|
GA Bd|eg b2|ag ef|1 g2 f2:|2 g2 g2||

